svgs/sharp-regular/message-image.svg

<svg xmlns="http://www.w3.org/2000/svg" viewBox="0 0 512 512"><!--! Font Awesome Pro 6.4.2 by @fontawesome - https://fontawesome.com License - https://fontawesome.com/license (Commercial License) Copyright 2023 Fonticons, Inc. --><path d="M208 480l-48 32V464v-9.7V416H112 48 0V368 48 0H48 464h48V48 368v48H464 304l-96 64zm0-57.7l69.4-46.2 12.1-8.1H304 464V48H48V368H160h48v48 6.3zM144 144a32 32 0 1 1 64 0 32 32 0 1 1 -64 0zM400 288v16H272 192 144V288l64-80 22 27.4L296 144 400 288z"/></svg>

<svg xmlns="http://www.w3.org/2000/svg" viewBox="0 0 512 512"><!--! Font Awesome Pro 6.6.0 by @fontawesome - https://fontawesome.com License - https://fontawesome.com/license (Commercial License) Copyright 2024 Fonticons, Inc. --><path d="M208 480l-48 32 0-48 0-9.7 0-38.3-48 0-64 0L0 416l0-48L0 48 0 0 48 0 464 0l48 0 0 48 0 320 0 48-48 0-160 0-96 64zm0-57.7l69.4-46.2 12.1-8.1 14.5 0 160 0 0-320L48 48l0 320 112 0 48 0 0 48 0 6.3zM144 144a32 32 0 1 1 64 0 32 32 0 1 1 -64 0zM400 288l0 16-128 0-80 0-48 0 0-16 64-80 22 27.4L296 144 400 288z"/></svg>
